assets/images/developers/advantages-secure.svg

<svg width="150" height="130" viewBox="0 0 150 130" fill="none" xmlns="http://www.w3.org/2000/svg">
<path d="M79.4704 20.9997L48.9434 15L57.9206 32.5748C57.9206 47.4922 63.5555 64.933 73.3739 80.3714L87.9935 103.38L76.9246 109.774V111.918L84.6066 108.703C85.1649 108.464 85.7157 108.211 86.2517 107.936L87.5618 107.177L96.2264 102.197L97.5439 101.437C100.045 99.8965 102.204 97.8272 103.983 95.3111C107.883 89.8176 109.997 82.1728 109.997 73.0393V50.2464L79.4704 20.9997Z" fill="url(#paint0_linear_353_9229)"/>
<path opacity="0.5" d="M79.4704 20.9997L48.9434 15L57.9206 32.5748C57.9206 47.4922 63.5555 64.933 73.3739 80.3714L87.9935 103.38L76.9246 109.774V111.918L84.6066 108.703C85.1649 108.464 85.7157 108.211 86.2517 107.936L87.5618 107.177L96.2264 102.197L97.5439 101.437C100.045 99.8965 102.204 97.8272 103.983 95.3111C107.883 89.8176 109.997 82.1728 109.997 73.0393V50.2464L79.4704 20.9997Z" fill="#20376B"/>
<path d="M79.4704 20.9997L48.9434 15L57.9206 32.5748C57.9206 47.4922 63.5555 64.933 73.3739 80.3714L87.9935 103.38L76.9246 109.774V111.918L84.6066 108.703C85.1649 108.464 85.7157 108.211 86.2517 107.936L87.5618 107.177L96.2264 102.197L97.5439 101.437C100.045 99.8965 102.204 97.8272 103.983 95.3112C107.883 89.8176 109.997 82.1728 109.997 73.0393V50.2464L79.4704 20.9997Z" stroke="#220E6E" stroke-linecap="round" stroke-linejoin="round"/>
<path d="M100.054 55.9559L69.527 26.7018L39 20.7021V43.4876C39 58.4049 44.635 75.8383 54.4533 91.2842L69.527 115L84.6007 108.688C94.4191 104.579 100.054 93.6513 100.054 78.734V55.9485V55.9559Z" fill="url(#paint1_linear_353_9229)" stroke="#220E6E" stroke-linejoin="round"/>
<path d="M94.984 58.4348L69.5262 34.034L44.0684 29.0392V48.0358C44.0684 60.4744 48.7728 75.0121 56.9536 87.8899L69.5262 107.668L82.0913 102.405C90.2795 98.9811 94.9765 89.8699 94.9765 77.4313V58.4348H94.984Z" fill="url(#paint2_linear_353_9229)" stroke="#220E6E" stroke-linejoin="round"/>
<path opacity="0.2" d="M94.9775 58.4271V77.4311C94.9775 89.8697 90.2804 98.9735 82.0997 102.398L72.5195 106.41V36.8848L94.9849 58.4271H94.9775Z" fill="white"/>
<path d="M60.0302 86.7435C51.842 73.8657 47.145 59.328 47.145 46.8894V29.6421L44.0781 29.0392V48.0358C44.0781 60.4744 48.7826 75.0121 56.9633 87.8899L69.5359 107.668L72.5358 106.41L60.0376 86.7435H60.0302Z" fill="url(#paint3_linear_353_9229)" stroke="#220E6E" stroke-linejoin="round"/>
<path opacity="0.5" d="M60.0302 86.7436C51.842 73.8659 47.145 59.3281 47.145 46.8895V29.6423L44.0781 29.0393V48.0359C44.0781 60.4745 48.7826 75.0122 56.9633 87.89L69.5359 107.668L72.5358 106.41L60.0376 86.7436H60.0302Z" fill="#20376B"/>
<path d="M100.054 55.956L69.527 26.7019L39 20.7021V43.4876C39 58.405 44.635 75.8384 54.4533 91.2843L69.527 115L84.6007 108.688C94.4191 104.579 100.054 93.6514 100.054 78.734V55.9485V55.956Z" stroke="#220E6E" stroke-linecap="round" stroke-linejoin="round"/>
<path d="M94.984 58.4349L69.5262 34.0341L44.0684 29.0393V48.0359C44.0684 60.4745 48.7728 75.0122 56.9536 87.89L69.5262 107.668L82.0913 102.405C90.2795 98.9813 94.9765 89.87 94.9765 77.4315V58.4349H94.984Z" stroke="#220E6E" stroke-linecap="round" stroke-linejoin="round"/>
<path d="M60.0302 86.7436C51.842 73.8659 47.145 59.3281 47.145 46.8895V29.6423L44.0781 29.0393V48.0359C44.0781 60.4745 48.7826 75.0122 56.9633 87.89L69.5359 107.668L72.5358 106.41L60.0376 86.7436H60.0302Z" stroke="#220E6E" stroke-linecap="round" stroke-linejoin="round"/>
<path d="M39 20.702L69.527 26.6942L79.4719 20.9997L48.9375 15L39 20.702Z" fill="url(#paint4_linear_353_9229)" stroke="#220E6E" stroke-linejoin="round"/>
<path d="M100.054 55.9558L109.999 50.2539L79.4723 20.9997L69.5273 26.6942L100.054 55.9558Z" fill="url(#paint5_linear_353_9229)" stroke="#220E6E" stroke-linejoin="round"/>
<path d="M86.7743 63.6676L85.2334 62.7818V61.226C85.2558 54.6234 80.596 46.5468 74.8493 43.2344C69.1027 39.9144 64.4131 42.5867 64.3908 49.1894V50.7451L63.5869 50.2836C62.3512 49.569 61.3463 50.1422 61.3388 51.564L61.2793 71.8185C61.2793 73.2403 62.2768 74.9747 63.5124 75.6819L86.6999 89.0658C87.9355 89.7804 88.9405 89.2073 88.9479 87.7855L89.0074 67.5309C89.0074 66.1091 88.01 64.3747 86.7743 63.6676ZM66.3411 50.3134C66.356 44.939 70.1672 42.7654 74.8419 45.4675C79.5166 48.1696 83.3055 54.7276 83.2906 60.102V61.6578L66.3411 51.8692V50.3134V50.3134Z" fill="#220E6E"/>
<path d="M84.0704 61.7246L60.883 48.3407C60.2652 47.9834 59.6994 47.9461 59.29 48.1843L51.9355 52.4571C52.345 52.2189 52.9032 52.2561 53.5285 52.6134L76.716 65.9974C77.9516 66.712 78.9491 68.4389 78.9491 69.8607L78.8895 90.1153C78.8895 90.8224 78.6365 91.3212 78.2345 91.5519L85.589 87.2792C85.9909 87.0484 86.244 86.5497 86.244 85.8425L86.3036 65.5879C86.3036 64.1662 85.3061 62.4318 84.0704 61.7246V61.7246Z" fill="url(#paint6_linear_353_9229)" stroke="#220E6E" stroke-linejoin="round"/>
<path opacity="0.3" d="M69.3539 53.2237H58.3594V49.2635H62.4907L69.3539 53.2237Z" fill="#220E6E"/>
<path opacity="0.3" d="M84.0708 61.7248L79.9246 64.1366H77.2598V60.1765H81.3911L84.0708 61.7248Z" fill="#220E6E"/>
<path d="M76.7157 65.9973C77.9514 66.7119 78.9489 68.4389 78.9489 69.8606L78.8893 90.1152C78.8893 91.537 77.8769 92.1101 76.6413 91.3955L53.4538 78.0116C52.2182 77.297 51.2207 75.57 51.2207 74.1483L51.2803 53.8937C51.2803 52.4719 52.2926 51.8987 53.5283 52.6133L76.7157 65.9973V65.9973Z" fill="url(#paint7_linear_353_9229)" stroke="#220E6E" stroke-linejoin="round"/>
<path d="M60.6989 68.2898C60.6989 66.0046 62.3514 65.1188 64.3612 66.3619C66.2445 67.5306 67.7705 70.255 67.7481 72.3988C67.7332 73.7313 67.1526 74.5799 66.2668 74.7883V81.8897C66.2668 82.3289 65.9616 82.5001 65.5745 82.2842L62.865 80.721C62.4854 80.4977 62.1727 79.9692 62.1727 79.53V72.4286C61.2795 71.178 60.6914 69.6446 60.6914 68.2824L60.6989 68.2898Z" fill="#220E6E" stroke="#220E6E" stroke-linecap="round" stroke-linejoin="round"/>
<path d="M62.5077 65.8037C62.2323 66.2206 62.076 66.7863 62.076 67.4935C62.076 68.8483 62.664 70.3891 63.5573 71.6397V78.7411C63.5573 79.1802 63.8625 79.7088 64.2495 79.9321L66.2668 81.1008V81.9047C66.2668 82.3439 65.9616 82.5151 65.5745 82.2992L62.865 80.736C62.4854 80.5127 62.1727 79.9842 62.1727 79.545V72.4436C61.2795 71.1931 60.6914 69.6596 60.6914 68.2974C60.6914 66.7789 61.4209 65.8856 62.5002 65.8112L62.5077 65.8037Z" fill="#5E62C7" stroke="#220E6E" stroke-linecap="round" stroke-linejoin="round"/>
<path d="M60.8483 45.7425C59.3223 46.6283 58.3844 48.5041 58.377 51.1765V53.2309L61.0791 51.6529V49.5984C61.0939 46.926 62.0393 45.0502 63.5578 44.1644L60.8483 45.7425Z" fill="#5E62C7" stroke="#220E6E" stroke-linecap="round" stroke-linejoin="round"/>
<path d="M69.5845 42.512C66.6963 40.8446 64.0686 40.6883 62.1705 41.79L59.4609 43.3681C61.3591 42.2664 63.9793 42.4152 66.875 44.0901C72.6216 47.41 77.2888 55.4791 77.2665 62.0818V64.1363L79.9686 62.5582V60.5037C79.9909 53.901 75.3311 45.8245 69.5845 42.512Z" fill="url(#paint8_linear_353_9229)" stroke="#220E6E" stroke-linejoin="round"/>
<path d="M66.8761 44.0901C72.6228 47.41 77.29 55.4791 77.2677 62.0818V64.1363L75.31 63.0122V60.9577C75.3323 55.5833 71.5434 49.0253 66.8687 46.3232C62.194 43.6211 58.3828 45.8022 58.3679 51.1692V53.2236L56.4102 52.0996V50.0451C56.4325 43.4425 61.1295 40.7702 66.8687 44.0901H66.8761Z" fill="url(#paint9_linear_353_9229)" stroke="#220E6E" stroke-linejoin="round"/>
<defs>
<linearGradient id="paint0_linear_353_9229" x1="80.5102" y1="115.514" x2="101.343" y2="53.4335" gradientUnits="userSpaceOnUse">
<stop stop-color="#E6007A"/>
<stop offset="0.21" stop-color="#703AC2"/>
<stop offset="0.46" stop-color="#0070EB"/>
<stop offset="0.77" stop-color="#0297FB"/>
<stop offset="1" stop-color="#0AE2FF"/>
</linearGradient>
<linearGradient id="paint1_linear_353_9229" x1="47.2534" y1="15.9554" x2="84.1143" y2="114.352" gradientUnits="userSpaceOnUse">
<stop stop-color="#F964B3"/>
<stop offset="0.21" stop-color="#9B6AE6"/>
<stop offset="0.46" stop-color="#59A7FD"/>
<stop offset="0.77" stop-color="#63C0FF"/>
<stop offset="1" stop-color="#7CF0FF"/>
</linearGradient>
<linearGradient id="paint2_linear_353_9229" x1="50.9512" y1="25.0813" x2="81.684" y2="107.13" gradientUnits="userSpaceOnUse">
<stop stop-color="#E6007A"/>
<stop offset="0.21" stop-color="#703AC2"/>
<stop offset="0.46" stop-color="#0070EB"/>
<stop offset="0.77" stop-color="#0297FB"/>
<stop offset="1" stop-color="#0AE2FF"/>
</linearGradient>
<linearGradient id="paint3_linear_353_9229" x1="47.9251" y1="25.0813" x2="91.1932" y2="89.6445" gradientUnits="userSpaceOnUse">
<stop stop-color="#E6007A"/>
<stop offset="0.21" stop-color="#703AC2"/>
<stop offset="0.46" stop-color="#0070EB"/>
<stop offset="0.77" stop-color="#0297FB"/>
<stop offset="1" stop-color="#0AE2FF"/>
</linearGradient>
<linearGradient id="paint4_linear_353_9229" x1="42.0003" y1="16.9998" x2="50.104" y2="34.5641" gradientUnits="userSpaceOnUse">
<stop stop-color="#F964B3"/>
<stop offset="0.53125" stop-color="#9B6AE6"/>
<stop offset="1" stop-color="#59A7FD"/>
</linearGradient>
<linearGradient id="paint5_linear_353_9229" x1="76.0025" y1="21.0017" x2="90.3059" y2="55.3393" gradientUnits="userSpaceOnUse">
<stop stop-color="#59A7FD"/>
<stop offset="0.505208" stop-color="#63C0FF"/>
<stop offset="1" stop-color="#7CF0FF"/>
</linearGradient>
<linearGradient id="paint6_linear_353_9229" x1="53.5145" y1="49.8953" x2="78.7034" y2="92.8924" gradientUnits="userSpaceOnUse">
<stop stop-color="#E8A6FF"/>
<stop offset="1" stop-color="#6FFFF6"/>
</linearGradient>
<linearGradient id="paint7_linear_353_9229" x1="52.4946" y1="53.9915" x2="76.4933" y2="90.5" gradientUnits="userSpaceOnUse">
<stop stop-color="#BB7FDF"/>
<stop offset="1" stop-color="#57E6DD"/>
</linearGradient>
<linearGradient id="paint8_linear_353_9229" x1="60.4031" y1="42.0725" x2="72.9239" y2="66.1513" gradientUnits="userSpaceOnUse">
<stop stop-color="#E8A6FF"/>
<stop offset="1" stop-color="#6FFFF6"/>
</linearGradient>
<linearGradient id="paint9_linear_353_9229" x1="57.3684" y1="43.582" x2="68.4315" y2="66.8095" gradientUnits="userSpaceOnUse">
<stop stop-color="#BB7FDF"/>
<stop offset="1" stop-color="#57E6DD"/>
</linearGradient>
</defs>
</svg>

<svg width="150" height="130" fill="none" xmlns="http://www.w3.org/2000/svg"><path d="m79.47 21-30.527-6 8.978 17.575c0 14.917 5.635 32.358 15.453 47.796l14.62 23.009-11.07 6.394v2.144l7.683-3.215c.558-.239 1.109-.492 1.645-.767l1.31-.759 8.664-4.98 1.318-.76c2.501-1.54 4.66-3.61 6.439-6.126 3.9-5.493 6.014-13.138 6.014-22.272V50.246L79.47 21Z" fill="url(#a)"/><path opacity=".5" d="m79.47 21-30.527-6 8.978 17.575c0 14.917 5.635 32.358 15.453 47.796l14.62 23.009-11.07 6.394v2.144l7.683-3.215c.558-.239 1.109-.492 1.645-.767l1.31-.759 8.664-4.98 1.318-.76c2.501-1.54 4.66-3.61 6.439-6.126 3.9-5.493 6.014-13.138 6.014-22.272V50.246L79.47 21Z" fill="#20376B"/><path d="m79.47 21-30.527-6 8.978 17.575c0 14.917 5.635 32.358 15.453 47.796l14.62 23.009-11.07 6.394v2.144l7.683-3.215c.558-.239 1.109-.492 1.645-.767l1.31-.759 8.664-4.98 1.318-.76c2.501-1.54 4.66-3.61 6.439-6.126 3.9-5.493 6.014-13.138 6.014-22.272V50.246L79.47 21Z" stroke="#220E6E" stroke-linecap="round" stroke-linejoin="round"/><path d="M100.054 55.956 69.527 26.702l-30.527-6v22.786c0 14.917 5.635 32.35 15.453 47.796L69.527 115l15.074-6.312c9.818-4.109 15.453-15.037 15.453-29.954V55.949v.007Z" fill="url(#b)" stroke="#220E6E" stroke-linejoin="round"/><path d="M94.984 58.435 69.526 34.034l-25.458-4.995v18.997c0 12.438 4.705 26.976 12.886 39.854l12.572 19.778 12.565-5.263c8.189-3.424 12.886-12.535 12.886-24.974V58.435h.007Z" fill="url(#c)" stroke="#220E6E" stroke-linejoin="round"/><path opacity=".2" d="M94.978 58.427v19.004c0 12.439-4.698 21.543-12.878 24.967l-9.58 4.012V36.885l22.465 21.542h-.007Z" fill="#fff"/><path d="M60.03 86.743C51.842 73.867 47.145 59.328 47.145 46.89V29.642l-3.067-.603v18.997c0 12.438 4.705 26.976 12.885 39.854l12.573 19.778 3-1.258-12.498-19.666h-.008Z" fill="url(#d)" stroke="#220E6E" stroke-linejoin="round"/><path opacity=".5" d="M60.03 86.744c-8.188-12.878-12.885-27.416-12.885-39.855V29.642l-3.067-.603v18.997c0 12.438 4.705 26.976 12.885 39.854l12.573 19.778 3-1.258-12.498-19.666h-.008Z" fill="#20376B"/><path d="M100.054 55.956 69.527 26.702l-30.527-6v22.786c0 14.917 5.635 32.35 15.453 47.796L69.527 115l15.074-6.312c9.818-4.109 15.453-15.037 15.453-29.954V55.949v.007Z" stroke="#220E6E" stroke-linecap="round" stroke-linejoin="round"/><path d="m94.984 58.435-25.458-24.4-25.458-4.996v18.997c0 12.438 4.705 26.976 12.886 39.854l12.572 19.778 12.565-5.263c8.189-3.424 12.886-12.535 12.886-24.974V58.436h.007Z" stroke="#220E6E" stroke-linecap="round" stroke-linejoin="round"/><path d="M60.03 86.744c-8.188-12.878-12.885-27.416-12.885-39.855V29.642l-3.067-.603v18.997c0 12.438 4.705 26.976 12.885 39.854l12.573 19.778 3-1.258-12.498-19.666h-.008Z" stroke="#220E6E" stroke-linecap="round" stroke-linejoin="round"/><path d="m39 20.702 30.527 5.992L79.472 21l-30.534-6L39 20.702Z" fill="url(#e)" stroke="#220E6E" stroke-linejoin="round"/><path d="m100.054 55.956 9.945-5.702L79.472 21l-9.945 5.694 30.527 29.262Z" fill="url(#f)" stroke="#220E6E" stroke-linejoin="round"/><path d="m86.774 63.668-1.54-.886v-1.556c.022-6.603-4.638-14.68-10.385-17.992-5.746-3.32-10.436-.647-10.458 5.955v1.556l-.804-.461c-1.236-.715-2.24-.142-2.248 1.28l-.06 20.255c0 1.421.998 3.156 2.233 3.863L86.7 89.066c1.236.714 2.24.141 2.248-1.28l.06-20.255c0-1.422-.998-3.156-2.234-3.863ZM66.341 50.313c.015-5.374 3.826-7.548 8.5-4.846 4.676 2.703 8.465 9.26 8.45 14.635v1.556l-16.95-9.789v-1.556Z" fill="#220E6E"/><path d="M84.07 61.725 60.883 48.34c-.618-.358-1.184-.395-1.593-.157l-7.355 4.273c.41-.238.968-.2 1.593.156l23.188 13.384c1.236.715 2.233 2.442 2.233 3.864l-.06 20.254c0 .707-.252 1.206-.654 1.437l7.354-4.273c.402-.23.655-.73.655-1.436l.06-20.255c0-1.422-.998-3.156-2.234-3.863Z" fill="url(#g)" stroke="#220E6E" stroke-linejoin="round"/><path opacity=".3" d="M69.354 53.224H58.359v-3.96h4.132l6.863 3.96ZM84.07 61.725l-4.145 2.412H77.26v-3.96h4.131l2.68 1.548Z" fill="#220E6E"/><path d="M76.716 65.997c1.235.715 2.233 2.442 2.233 3.864l-.06 20.254c0 1.422-1.012 1.995-2.248 1.28L53.454 78.013c-1.236-.715-2.233-2.442-2.233-3.864l.06-20.254c0-1.422 1.012-1.995 2.247-1.28l23.188 13.383Z" fill="url(#h)" stroke="#220E6E" stroke-linejoin="round"/><path d="M60.699 68.29c0-2.285 1.652-3.171 3.662-1.928 1.883 1.169 3.41 3.893 3.387 6.037-.015 1.332-.595 2.18-1.481 2.39v7.1c0 .44-.305.611-.692.395l-2.71-1.563c-.38-.223-.692-.752-.692-1.191v-7.101c-.894-1.251-1.482-2.784-1.482-4.147l.008.008Z" fill="#220E6E" stroke="#220E6E" stroke-linecap="round" stroke-linejoin="round"/><path d="M62.508 65.804c-.276.417-.432.982-.432 1.69 0 1.354.588 2.895 1.481 4.146v7.101c0 .44.305.968.692 1.191l2.018 1.169v.804c0 .439-.305.61-.692.394l-2.71-1.563c-.38-.223-.692-.752-.692-1.191v-7.101c-.894-1.25-1.482-2.784-1.482-4.147 0-1.518.73-2.411 1.81-2.486l.007-.007ZM60.848 45.742c-1.526.886-2.464 2.762-2.471 5.434v2.055l2.702-1.578v-2.055c.015-2.672.96-4.548 2.479-5.434l-2.71 1.578Z" fill="#5E62C7" stroke="#220E6E" stroke-linecap="round" stroke-linejoin="round"/><path d="M69.585 42.512c-2.889-1.667-5.516-1.824-7.414-.722l-2.71 1.578c1.898-1.102 4.518-.953 7.414.722 5.747 3.32 10.414 11.39 10.391 17.992v2.054l2.703-1.578v-2.054c.022-6.603-4.638-14.68-10.384-17.992Z" fill="url(#i)" stroke="#220E6E" stroke-linejoin="round"/><path d="M66.876 44.09c5.747 3.32 10.414 11.39 10.392 17.992v2.054l-1.958-1.124v-2.054c.022-5.375-3.767-11.933-8.441-14.635-4.675-2.702-8.486-.52-8.501 4.846v2.055L56.41 52.1v-2.055c.023-6.602 4.72-9.275 10.459-5.955h.007Z" fill="url(#j)" stroke="#220E6E" stroke-linejoin="round"/><defs><linearGradient id="a" x1="80.51" y1="115.514" x2="101.343" y2="53.434" gradientUnits="userSpaceOnUse"><stop stop-color="#E6007A"/><stop offset=".21" stop-color="#703AC2"/><stop offset=".46" stop-color="#0070EB"/><stop offset=".77" stop-color="#0297FB"/><stop offset="1" stop-color="#0AE2FF"/></linearGradient><linearGradient id="b" x1="47.253" y1="15.955" x2="84.114" y2="114.352" gradientUnits="userSpaceOnUse"><stop stop-color="#F964B3"/><stop offset=".21" stop-color="#9B6AE6"/><stop offset=".46" stop-color="#59A7FD"/><stop offset=".77" stop-color="#63C0FF"/><stop offset="1" stop-color="#7CF0FF"/></linearGradient><linearGradient id="c" x1="50.951" y1="25.081" x2="81.684" y2="107.13" gradientUnits="userSpaceOnUse"><stop stop-color="#E6007A"/><stop offset=".21" stop-color="#703AC2"/><stop offset=".46" stop-color="#0070EB"/><stop offset=".77" stop-color="#0297FB"/><stop offset="1" stop-color="#0AE2FF"/></linearGradient><linearGradient id="d" x1="47.925" y1="25.081" x2="91.193" y2="89.644" gradientUnits="userSpaceOnUse"><stop stop-color="#E6007A"/><stop offset=".21" stop-color="#703AC2"/><stop offset=".46" stop-color="#0070EB"/><stop offset=".77" stop-color="#0297FB"/><stop offset="1" stop-color="#0AE2FF"/></linearGradient><linearGradient id="e" x1="42" y1="17" x2="50.104" y2="34.564" gradientUnits="userSpaceOnUse"><stop stop-color="#F964B3"/><stop offset=".531" stop-color="#9B6AE6"/><stop offset="1" stop-color="#59A7FD"/></linearGradient><linearGradient id="f" x1="76.002" y1="21.002" x2="90.306" y2="55.339" gradientUnits="userSpaceOnUse"><stop stop-color="#59A7FD"/><stop offset=".505" stop-color="#63C0FF"/><stop offset="1" stop-color="#7CF0FF"/></linearGradient><linearGradient id="g" x1="53.514" y1="49.895" x2="78.703" y2="92.892" gradientUnits="userSpaceOnUse"><stop stop-color="#E8A6FF"/><stop offset="1" stop-color="#6FFFF6"/></linearGradient><linearGradient id="h" x1="52.495" y1="53.992" x2="76.493" y2="90.5" gradientUnits="userSpaceOnUse"><stop stop-color="#BB7FDF"/><stop offset="1" stop-color="#57E6DD"/></linearGradient><linearGradient id="i" x1="60.403" y1="42.072" x2="72.924" y2="66.151" gradientUnits="userSpaceOnUse"><stop stop-color="#E8A6FF"/><stop offset="1" stop-color="#6FFFF6"/></linearGradient><linearGradient id="j" x1="57.368" y1="43.582" x2="68.431" y2="66.809" gradientUnits="userSpaceOnUse"><stop stop-color="#BB7FDF"/><stop offset="1" stop-color="#57E6DD"/></linearGradient></defs></svg>
